X:1
T:Title
%%score { 1 | 2 }
L:1/8
M:2/4
K:Eb
V:1 treble nm="Grand Piano"
V:2 bass 
V:1
 z2 z[Q:1/4=92] G | EE EG | [GB][GB] [GB][Ac] | [GB]G GE |[M:3/8] [DF]3 |[M:1/8] [DF] | %6
[M:2/4] EE EG | [GB][GB] [GB][Ge] | dB c=A |[M:3/8] [DB]3 |[M:1/8] B |[M:2/4] [Ge]<[Ge] [Ae]2 | %12
 [Ge]3 [EGB] | [EAc]<[EAc] [EAe]2 | [EGB]3 G | EE EG/[FA]/ |[M:3/8] [GB][Ac][GB] |[M:1/8] [EG] | %18
[M:2/4] [DF]<[DF] [EG]2 |[M:3/8] [DF]3 |[M:1/8] B |[M:2/4] [Ge]<[Ge] [Ae]2 | [Ge]3 [EGB] | %23
 [EAc]<[EAc] [EAe]2 | [EGB]3 [B,EG] | [G,B,E][G,B,E] [G,B,E][B,EG]/[B,FA]/ | %26
[M:3/8] [EGB][EAc][EGB] |[M:1/8] [CDF] |[M:2/4] [B,EG]<[B,EG] [A,DF]2 |[M:3/8] [G,B,E]3 |] %30
V:2
 z2 z [E,B,E] | [E,G,B,][E,G,B,] [E,G,B,][E,B,E] | [E,E][E,E] [E,E][E,E] | %3
 [E,E][E,B,E] [E,B,E][E,G,] |[M:3/8] [B,,B,]3 |[M:1/8] [B,,A,] | %6
[M:2/4] [E,G,B,][E,G,B,] [E,G,B,][E,B,E] | [E,E][E,E] [E,E][E,B,] | [F,B,F][F,B,D] [F,=A,E][F,CE] | %9
[M:3/8] [B,,B,]3 |[M:1/8] [B,A] |[M:2/4] [E,B,]<[E,B,] [E,C]2 | [E,B,]3 E, | A,,<A,, C,2 | %14
 E,3 [E,B,E] | [E,G,B,][E,G,B,] [E,G,B,][E,B,E]/[E,B,]/ |[M:3/8] [E,E][E,E][E,E] |[M:1/8] [E,B,] | %18
[M:2/4] [B,,B,]<[B,,B,] [B,,B,]2 |[M:3/8] [B,,B,]3 |[M:1/8] [B,A] |[M:2/4] [E,B,]<[E,B,] [E,C]2 | %22
 [E,B,]3 E, | A,,<A,, C,2 | E,3 E, | E,E, E,E,/E,/ |[M:3/8] E,E,E, |[M:1/8] A,, | %28
[M:2/4] B,,<B,, B,,2 |[M:3/8] E,3 |] %30

